src/assets/icons/clock_icon.svg

<svg fill="none" height="24" viewBox="0 0 24 24" width="24" xmlns="http://www.w3.org/2000/svg"><path d="m12 2c5.5229 0 10.0008 4.47712 10.001 10 0 5.523-4.478 10.001-10.001 10.001-5.52283-.0003-10-4.4781-10-10.001.0002-5.52272 4.4773-9.99974 10-10zm0 1.5c-4.69428.00026-8.4998 3.80571-8.5 8.5 0 4.6945 3.8056 8.5007 8.5 8.501 4.6946 0 8.501-3.8064 8.501-8.501-.0002-4.69445-3.8065-8.5-8.501-8.5zm.001 3.125c.414.00026.75.33595.75.75v4.5684l3.4599 3.207c.3034.2815.3212.7558.0401 1.0596-.2814.3035-.7558.322-1.0596.041l-3.6357-3.3692c-.1941-.1798-.3047-.4327-.3047-.6972v-4.8096c0-.41421.3358-.75.75-.75z" fill="#000"/></svg>

<svg width="24" height="24" viewBox="0 0 24 24" fill="none" xmlns="http://www.w3.org/2000/svg">
<path d="M12 2C17.5229 2 22.0008 6.47712 22.001 12C22.001 17.523 17.523 22.001 12 22.001C6.47717 22.0007 2 17.5229 2 12C2.0002 6.47728 6.4773 2.00026 12 2ZM12 3.5C7.30572 3.50026 3.5002 7.30571 3.5 12C3.5 16.6945 7.3056 20.5007 12 20.501C16.6946 20.501 20.501 16.6946 20.501 12C20.5008 7.30555 16.6945 3.5 12 3.5ZM12.001 6.625C12.415 6.62526 12.751 6.96095 12.751 7.375V11.9434L16.2109 15.1504C16.5143 15.4319 16.5321 15.9062 16.251 16.21C15.9696 16.5135 15.4952 16.532 15.1914 16.251L11.5557 12.8818C11.3616 12.702 11.251 12.4491 11.251 12.1846V7.375C11.251 6.96079 11.5868 6.625 12.001 6.625Z" fill="black"/>
</svg>
